X:1
T:Dash to Portobello
M:4/4
L:1/8
R:hornpipe
F:Catskills+Tunes.txt
K:Edor
D:Willie Kelly (Wed AM)
BEEE EDB,E | D2 FE DA,A,A, | B,EED DFGA | B2 eB dBAd |
BEEE EDB,E | D2 FE DA,A,A, | B,EED DFGA | ((3Bcd) AF GEEE :|
g2 eg bgeg | f2 df afdf | g2 eg bgeg | fgaf geef |
g2 eg bgeg | f2 df afdf | g2 ga bgaf | gfed ((3Bcd) e3 :|
